Yaru++/status/16/image-missing.svg

<svg height="16.000017" width="16.000044" xmlns="http://www.w3.org/2000/svg"><path d="m2 2c-.438 0-.786125.0394375-1.078125.1484375-.292.11-.5260625.3095469-.6640625.5605469-.277.502-.2478125 1.114125-.2578125 1.953125v6.6757816c.01.839-.0191875 1.451125.2578125 1.953125.138.251.3720625.450547.6640625.560546.292.11.640125.148438 1.078125.148438h12c.439 0 .786125-.039437 1.078125-.148438.293-.109999.528016-.309546.666016-.560546.277-.502.245859-1.114125.255859-1.953125v-6.6757816c-.01-.839.021141-1.451125-.255859-1.953125-.148319-.2599459-.384471-.4590451-.666016-.5605469-.292-.11-.640125-.1484375-1.078125-.1484375zm0 1h12c.38 0 .605562.0389844.726562.0839844.083001.031.127579.0804219.142579.1074218.095.1720001.119859.6146563.130859 1.4726563v6.6738285c-.01.855-.036859 1.299703-.130859 1.470703-.03398.05123-.084008.088752-.142579.107422-.121.045-.346562.083984-.726562.083984h-12c-.38 0-.6065625-.038984-.7265625-.083984-.05819-.01785-.107777-.056182-.140625-.107422-.096-.174-.1228125-.616703-.1328125-1.470703v-6.6738285c.01-.856.0368125-1.2986562.1328125-1.4726563.0326-.05105.082805-.0893678.140625-.1074218.121-.045.3475625-.0839844.7265625-.0839844zm6 .75c-2.3443 0-4.25 1.905755-4.25 4.25 0 2.344246 1.9057 4.25 4.25 4.25 2.3444 0 4.25-1.905754 4.25-4.25 0-2.344245-1.9056-4.25-4.25-4.25zm0 1c1.7979 0 3.25 1.452115 3.25 3.25 0 .701595-.301986 1.3034714-.679688 1.8339844l-4.4062495-4.4042969c.5309-.378474 1.1334375-.6796875 1.8359375-.6796875zm-2.5605469 1.4042969 4.40625 4.4082031c-.5329.383329-1.1385031.6875-1.8457031.6875-1.7978 0-3.25-1.452114-3.25-3.25 0-.707405.3058531-1.3127501.6894531-1.8457031z" fill="#808080"/></svg>

<?xml version="1.0" encoding="UTF-8" standalone="no"?>
<svg
   xmlns:osb="http://www.openswatchbook.org/uri/2009/osb"
   xmlns:dc="http://purl.org/dc/elements/1.1/"
   xmlns:cc="http://creativecommons.org/ns#"
   xmlns:rdf="http://www.w3.org/1999/02/22-rdf-syntax-ns#"
   xmlns:svg="http://www.w3.org/2000/svg"
   xmlns="http://www.w3.org/2000/svg"
   xmlns:sodipodi="http://sodipodi.sourceforge.net/DTD/sodipodi-0.dtd"
   xmlns:inkscape="http://www.inkscape.org/namespaces/inkscape"
   height="16.000017"
   id="svg7384"
   version="1.1"
   width="16.000044"
   sodipodi:docname="image-missing.svg"
   inkscape:version="0.92.4 (5da689c313, 2019-01-14)">
  <sodipodi:namedview
     pagecolor="#ffffff"
     bordercolor="#666666"
     borderopacity="1"
     objecttolerance="10"
     gridtolerance="10"
     guidetolerance="10"
     inkscape:pageopacity="0"
     inkscape:pageshadow="2"
     inkscape:window-width="1920"
     inkscape:window-height="1016"
     id="namedview22"
     showgrid="false"
     inkscape:zoom="69.916677"
     inkscape:cx="8"
     inkscape:cy="7.9999993"
     inkscape:window-x="0"
     inkscape:window-y="27"
     inkscape:window-maximized="1"
     inkscape:current-layer="layer9" />
  <metadata
     id="metadata20854">
    <rdf:RDF>
      <cc:Work
         rdf:about="">
        <dc:title />
        <dc:format>image/svg+xml</dc:format>
        <dc:type
           rdf:resource="http://purl.org/dc/dcmitype/StillImage" />
      </cc:Work>
    </rdf:RDF>
  </metadata>
  <defs
     id="defs7386">
    <linearGradient
       id="linearGradient5606"
       osb:paint="solid">
      <stop
         id="stop5608"
         offset="0"
         style="stop-color:#000000;stop-opacity:1;" />
    </linearGradient>
    <linearGradient
       id="linearGradient4526"
       osb:paint="solid">
      <stop
         id="stop4528"
         offset="0"
         style="stop-color:#ffffff;stop-opacity:1;" />
    </linearGradient>
    <linearGradient
       id="linearGradient3600-4"
       osb:paint="gradient">
      <stop
         id="stop3602-7"
         offset="0"
         style="stop-color:#f4f4f4;stop-opacity:1" />
      <stop
         id="stop3604-6"
         offset="1"
         style="stop-color:#dbdbdb;stop-opacity:1" />
    </linearGradient>
  </defs>
  <g
     id="layer9"
     label="status"
     style="display:inline;stroke:#000000;stroke-opacity:1;stroke-width:0.5;stroke-miterlimit:4;stroke-dasharray:none"
     transform="translate(-1011.3731,62.525455)">
    <path
       style="color:#000000;font-style:normal;font-variant:normal;font-weight:normal;font-stretch:normal;font-size:medium;line-height:normal;font-family:sans-serif;font-variant-ligatures:normal;font-variant-position:normal;font-variant-caps:normal;font-variant-numeric:normal;font-variant-alternates:normal;font-feature-settings:normal;text-indent:0;text-align:start;text-decoration:none;text-decoration-line:none;text-decoration-style:solid;text-decoration-color:#000000;letter-spacing:normal;word-spacing:normal;text-transform:none;writing-mode:lr-tb;direction:ltr;text-orientation:mixed;dominant-baseline:auto;baseline-shift:baseline;text-anchor:start;white-space:normal;shape-padding:0;clip-rule:nonzero;display:inline;overflow:visible;visibility:visible;opacity:1;isolation:auto;mix-blend-mode:normal;color-interpolation:sRGB;color-interpolation-filters:linearRGB;solid-color:#000000;solid-opacity:1;vector-effect:none;fill:#808080;fill-opacity:1;fill-rule:nonzero;stroke:none;stroke-width:0.5;stroke-linecap:round;stroke-linejoin:round;stroke-miterlimit:4;stroke-dasharray:none;stroke-dashoffset:0;stroke-opacity:1;color-rendering:auto;image-rendering:auto;shape-rendering:auto;text-rendering:auto;enable-background:accumulate"
       d="M 2 2 C 1.562 2 1.213875 2.0394375 0.921875 2.1484375 C 0.629875 2.2584375 0.3958125 2.4579844 0.2578125 2.7089844 C -0.0191875 3.2109844 0.01 3.8231094 0 4.6621094 L 0 11.337891 C 0.01 12.176891 -0.0191875 12.789016 0.2578125 13.291016 C 0.3958125 13.542016 0.629875 13.741563 0.921875 13.851562 C 1.213875 13.961562 1.562 14 2 14 L 14 14 C 14.439 14 14.786125 13.960563 15.078125 13.851562 C 15.371125 13.741563 15.606141 13.542016 15.744141 13.291016 C 16.021141 12.789016 15.99 12.176891 16 11.337891 L 16 4.6621094 C 15.99 3.8231094 16.021141 3.2109844 15.744141 2.7089844 C 15.595822 2.4490385 15.35967 2.2499393 15.078125 2.1484375 C 14.786125 2.0384375 14.438 2 14 2 L 2 2 z M 2 3 L 14 3 C 14.38 3 14.605562 3.0389844 14.726562 3.0839844 C 14.809563 3.1149844 14.854141 3.1644063 14.869141 3.1914062 C 14.964141 3.3634063 14.989 3.8060625 15 4.6640625 L 15 11.337891 C 14.99 12.192891 14.963141 12.637594 14.869141 12.808594 C 14.835161 12.859824 14.785133 12.897346 14.726562 12.916016 C 14.605562 12.961016 14.38 13 14 13 L 2 13 C 1.62 13 1.3934375 12.961016 1.2734375 12.916016 C 1.2152475 12.898166 1.1656605 12.859834 1.1328125 12.808594 C 1.0368125 12.634594 1.01 12.191891 1 11.337891 L 1 4.6640625 C 1.01 3.8080625 1.0368125 3.3654063 1.1328125 3.1914062 C 1.1654125 3.1403562 1.2156175 3.1020384 1.2734375 3.0839844 C 1.3944375 3.0389844 1.621 3 2 3 z M 8 3.75 C 5.6557 3.75 3.75 5.655755 3.75 8 C 3.75 10.344246 5.6557 12.25 8 12.25 C 10.3444 12.25 12.25 10.344246 12.25 8 C 12.25 5.655755 10.3444 3.75 8 3.75 z M 8 4.75 C 9.7979 4.75 11.25 6.202115 11.25 8 C 11.25 8.701595 10.948014 9.3034714 10.570312 9.8339844 L 6.1640625 5.4296875 C 6.6949625 5.0512135 7.2975 4.75 8 4.75 z M 5.4394531 6.1542969 L 9.8457031 10.5625 C 9.3128031 10.945829 8.7072 11.25 8 11.25 C 6.2022 11.25 4.75 9.797886 4.75 8 C 4.75 7.292595 5.0558531 6.6872499 5.4394531 6.1542969 z "
       transform="translate(1011.3731,-62.525455)"
       id="path5218-5" />
  </g>
  <g
     id="layer2"
     style="display:inline"
     transform="translate(-792,-299.99998)" />
  <g
     id="layer4"
     style="display:inline"
     transform="translate(-792,-299.99998)" />
  <g
     id="g1812"
     style="display:inline"
     transform="translate(-792,-299.99998)" />
  <g
     id="g6217"
     style="display:inline"
     transform="translate(-792,-299.99998)" />
  <g
     id="layer3"
     style="display:inline"
     transform="translate(-792,-299.99998)" />
  <g
     id="g1833"
     style="display:inline"
     transform="translate(-792,-299.99998)" />
  <g
     id="layer1"
     style="display:inline"
     transform="translate(-792,-299.99998)" />
</svg>
